assets/img/braze_icons/file-code-02.svg

<svg fill="none" height="24" viewBox="0 0 24 24" width="24" xmlns="http://www.w3.org/2000/svg"><path clip-rule="evenodd" d="m14.6911 1.11058c-.4627-.11108-.9424-.110851-1.5774-.11055l-3.355.00003c-.80497-.00001-1.46933-.00002-2.01052.0442-.5621.04592-1.07881.14449-1.56414.39178-.75265.38349-1.36457.99541-1.74806 1.74806-.2473.48534-.34586 1.00204-.39179 1.56414-.04421.54119-.0442 1.20554-.04419 2.01051v10.48265c-.00001.8049-.00002 1.4693.04419 2.0105.04593.5621.14449 1.0788.39179 1.5641.38349.7527.99541 1.3646 1.74806 1.7481.48533.2473 1.00204.3458 1.56414.3918.54119.0442 1.20554.0442 2.0105.0442h6.48262c.805 0 1.4693 0 2.0105-.0442.5621-.046 1.0788-.1445 1.5642-.3918.7526-.3835 1.3645-.9954 1.748-1.7481.2473-.4853.3459-1.002.3918-1.5641.0442-.5412.0442-1.2056.0442-2.0105v-7.35498c.0003-.635.0006-1.1148-.1105-1.5775-.098-.40814-.2596-.79832-.4789-1.15621-.2487-.40572-.5881-.74482-1.0373-1.19361l-3.3323-3.33232c-.4488-.44922-.7879-.78865-1.1936-1.03728-.3579-.21931-.7481-.38093-1.1563-.47892zm-2.984 9.09652c.3905-.39052.3905-1.02368 0-1.41421-.3905-.39052-1.0237-.39052-1.4142 0l-2.50001 2.50001c-.39052.3905-.39052 1.0237 0 1.4142l2.50001 2.5c.3905.3905 1.0237.3905 1.4142 0s.3905-1.0237 0-1.4142l-1.79289-1.7929zm4-1.41421c-.3905-.39052-1.0237-.39052-1.4142 0-.3905.39053-.3905 1.02369 0 1.41421l1.7929 1.7929-1.7929 1.7929c-.3905.3905-.3905 1.0237 0 1.4142s1.0237.3905 1.4142 0l2.5-2.5c.3905-.3905.3905-1.0237 0-1.4142z" fill="#801ed7" fill-rule="evenodd"/></svg>

<svg width="24" height="24" viewBox="0 0 24 24" fill="none" xmlns="http://www.w3.org/2000/svg">
<path fill-rule="evenodd" clip-rule="evenodd" d="M14.6911 1.11058C14.2284 0.9995 13.7487 0.999729 13.1137 1.00003L9.7587 1.00006C8.95373 1.00005 8.28937 1.00004 7.74818 1.04426C7.18608 1.09018 6.66937 1.18875 6.18404 1.43604C5.43139 1.81953 4.81947 2.43145 4.43598 3.1841C4.18868 3.66944 4.09012 4.18614 4.04419 4.74824C3.99998 5.28943 3.99999 5.95378 4 6.75875V17.2414C3.99999 18.0463 3.99998 18.7107 4.04419 19.2519C4.09012 19.814 4.18868 20.3307 4.43598 20.816C4.81947 21.5687 5.43139 22.1806 6.18404 22.5641C6.66937 22.8114 7.18608 22.9099 7.74818 22.9559C8.28937 23.0001 8.95372 23.0001 9.75868 23.0001H16.2413C17.0463 23.0001 17.7106 23.0001 18.2518 22.9559C18.8139 22.9099 19.3306 22.8114 19.816 22.5641C20.5686 22.1806 21.1805 21.5687 21.564 20.816C21.8113 20.3307 21.9099 19.814 21.9558 19.2519C22 18.7107 22 18.0463 22 17.2414L22 9.88642C22.0003 9.25142 22.0006 8.77162 21.8895 8.30892C21.7915 7.90078 21.6299 7.5106 21.4106 7.15271C21.1619 6.74699 20.8225 6.40789 20.3733 5.9591L17.041 2.62678C16.5922 2.17756 16.2531 1.83813 15.8474 1.5895C15.4895 1.37019 15.0993 1.20857 14.6911 1.11058ZM11.7071 10.2071C12.0976 9.81658 12.0976 9.18342 11.7071 8.79289C11.3166 8.40237 10.6834 8.40237 10.2929 8.79289L7.79289 11.2929C7.40237 11.6834 7.40237 12.3166 7.79289 12.7071L10.2929 15.2071C10.6834 15.5976 11.3166 15.5976 11.7071 15.2071C12.0976 14.8166 12.0976 14.1834 11.7071 13.7929L9.91421 12L11.7071 10.2071ZM15.7071 8.79289C15.3166 8.40237 14.6834 8.40237 14.2929 8.79289C13.9024 9.18342 13.9024 9.81658 14.2929 10.2071L16.0858 12L14.2929 13.7929C13.9024 14.1834 13.9024 14.8166 14.2929 15.2071C14.6834 15.5976 15.3166 15.5976 15.7071 15.2071L18.2071 12.7071C18.5976 12.3166 18.5976 11.6834 18.2071 11.2929L15.7071 8.79289Z" fill="#801ED7"/>
</svg>
